!!!OTL: MAEDELE RUCK AN MEINE GRUENE SEITE
!!!ARE: Europa, Mitteleuropa, Deutschland, Schwaben
!!!SCT: E0525
!!!YEM: Copyright 1995, estate of Helmut Schaffrath.
**kern
*ICvox
*Ivox
!! Mixed meters:  4/4; 3/4
*M4/4
*k[b-]
*F:
{16f
16f
8a
=1
8cc
8cc
8cc
8cc
8bn
8cc
8dd
8cc
=2
*M3/4
8cc
8ff
8a}
{8a
8g
8a
=3
8.cc
16b-
8b-
8b-
8a
8b-
=4
4dd
4cc}
{8cc
8cc
=5
8b-
8b-
4g
8dd
8dd
=6
8cc
8cc
4a}
{8cc
8cc
=7
8b-
8b-
4g
8dd
8dd
=8
8cc
8cc
4a}
{16f
16f
8a
=9
*M4/4
8cc
8cc
8cc
8cc
8bn
8cc
8dd
8cc
=10
*M3/4
8cc
8ff
8a}
{8a
8g
8a
=11
8.cc
16b-
8b-
8a
8b-
8g
=12
4g
4f}
==
!!!AGN: Liebes - Lied
!!!ONB: ESAC (Essen Associative Code) Database: ERK1
!!!AMT: irregular
!!!AIN: vox
!!!EED: Helmut Schaffrath
!!!EEV: 1.0
*-
